packages/blockchain-info-components/src/Images/img/percentage-blue-circle.svg

<svg fill="none" height="24" viewBox="0 0 24 24" width="24" xmlns="http://www.w3.org/2000/svg"><circle cx="12" cy="12" fill="#d8ebfd" r="12"/><path clip-rule="evenodd" d="m8.25 9.1875c.51777 0 .9375-.41973.9375-.9375s-.41973-.9375-.9375-.9375-.9375.41973-.9375.9375.41973.9375.9375.9375zm0 1.5625c1.38071 0 2.5-1.11929 2.5-2.5s-1.11929-2.5-2.5-2.5-2.5 1.11929-2.5 2.5 1.11929 2.5 2.5 2.5zm9.4993-4.04983-.243-.24306c-.3906-.39053-1.0237-.39053-1.4143 0l-9.63429 9.63429c-.39052.3906-.39052 1.0237 0 1.4143l.24307.243c.39052.3905 1.02369.3905 1.41421 0l9.63431-9.63431c.3905-.39053.3905-1.02369 0-1.41422zm-1.0618 9.04983c0 .5178-.4197.9375-.9375.9375s-.9375-.4197-.9375-.9375.4197-.9375.9375-.9375.9375.4197.9375.9375zm1.5625 0c0 1.3807-1.1193 2.5-2.5 2.5s-2.5-1.1193-2.5-2.5 1.1193-2.5 2.5-2.5 2.5 1.1193 2.5 2.5z" fill="#0c6cf2" fill-rule="evenodd"/></svg>

<svg width="24" height="24" viewBox="0 0 24 24" fill="none" xmlns="http://www.w3.org/2000/svg">
<circle cx="12" cy="12" r="12" fill="#D8EBFD"/>
<path fill-rule="evenodd" clip-rule="evenodd" d="M8.25 9.1875C8.76777 9.1875 9.1875 8.76777 9.1875 8.25C9.1875 7.73223 8.76777 7.3125 8.25 7.3125C7.73223 7.3125 7.3125 7.73223 7.3125 8.25C7.3125 8.76777 7.73223 9.1875 8.25 9.1875ZM8.25 10.75C9.63071 10.75 10.75 9.63071 10.75 8.25C10.75 6.86929 9.63071 5.75 8.25 5.75C6.86929 5.75 5.75 6.86929 5.75 8.25C5.75 9.63071 6.86929 10.75 8.25 10.75ZM17.7493 6.70017L17.5063 6.45711C17.1157 6.06658 16.4826 6.06658 16.092 6.45711L6.45771 16.0914C6.06719 16.482 6.06719 17.1151 6.45771 17.5057L6.70078 17.7487C7.0913 18.1392 7.72447 18.1392 8.11499 17.7487L17.7493 8.11439C18.1398 7.72386 18.1398 7.0907 17.7493 6.70017ZM16.6875 15.75C16.6875 16.2678 16.2678 16.6875 15.75 16.6875C15.2322 16.6875 14.8125 16.2678 14.8125 15.75C14.8125 15.2322 15.2322 14.8125 15.75 14.8125C16.2678 14.8125 16.6875 15.2322 16.6875 15.75ZM18.25 15.75C18.25 17.1307 17.1307 18.25 15.75 18.25C14.3693 18.25 13.25 17.1307 13.25 15.75C13.25 14.3693 14.3693 13.25 15.75 13.25C17.1307 13.25 18.25 14.3693 18.25 15.75Z" fill="#0C6CF2"/>
</svg>
